X:111
T:DRBYRAM- The Ram of Derby
S:British Melodies, c 1810
Q:1/4=100
L:1/8
M:6/8
K:C
G|c2d cde|~c3G2G|A2(G{A/B/}c2)E|{E/}D3z2G|~c2e~e2g|g2c'c'2g|\
acf e3/2f/d|c2cc2G|c2c c d e|c3G2G|A2G{A/B/}c2E|{E/}D3z2G|\
c2c cd e|c3G2G|A2G{A/B/}c2E|{E/}D3zE|C3C D E|G3G E D|C C C CD E|\
G3z2E|C2C CD E|G2G G A B|c d e fd B|c2 e~e2g|~g2c' c'2 g|\
acf efd|c2c~c2|]

